X:1
T:The Coal Town Road
M:4/4
L:1/8
K:G
 G2| DG GG G2 B3/2 A/2| G2 F2 G2 AB| cd cB E2 FG| A2 B2 A2| Bc| dc BA G2 AB|\
 cB AG E2 FE| D/2 G3/2 GG G2 B3/2 A/2| G2 F2 G2||
